X: 3340
T: LONDONDERRY
%R: hornpipe, shottish
B: James Kerr "Merry Melodies" v.3 p.36 #340
Z: 2016 John Chambers <jc:trillian.mit.edu>
M: C
L: 1/8
K: D
uA>uG |\
F2A>d f>dA>F | G2B>d g>dB>G |\
F2A>d f>dA>F | E2A>c e>cA>G |\
F2A>d f>dA>F | G2B>d g>dB>G |\
F>Ad>f e>ge>c | d2f2d2 :|
|: f>g |\
a2f>d A>df>a | b2g>d B>dg>b |\
a2f>d A>df>d | e>dc>B A2f>g |\
a2f>d A>df>a | b2g>d B>ba>g |\
f>af>d e>ge>c | d2f2d2 :|
|: f>g |\
a>ga>b a>fd>f | g>fg>a g>ec>A |\
a>ga>b a>fd>f | e>dc>B A2f>g |\
a>ga>b a>fd>f | g>fg>a g>ec>e |\
f>af>d e>ge>c | d2f2d2 :|

%%sep 1 1 500
%%sep 1 1 500

